Printex-remake/img/icons/catalog_small/09.svg

<svg width="87" height="87" viewBox="0 0 87 87" fill="none" xmlns="http://www.w3.org/2000/svg">
<g clip-path="url(#clip0)">
<path fill-rule="evenodd" clip-rule="evenodd" d="M60.7618 64.8359C60.9742 64.5511 61.1821 64.2614 61.3852 63.967C69.0136 52.9121 67.5792 38.6691 58.7558 29.4704C59.8528 29.3476 60.9384 29.2796 62.0066 29.2701C68.8196 29.2092 73.647 31.535 75.9617 35.3531C76.5784 36.3703 76.4447 37.6377 75.8591 38.6731L61.2413 64.519C61.0821 64.6255 60.9223 64.7311 60.7618 64.8359Z" fill="#E5CABE"/>
<path fill-rule="evenodd" clip-rule="evenodd" d="M40.0542 76.4329C48.2024 75.2102 55.9238 72.1757 60.8114 67.4692C68.955 59.6273 66.7718 48.4219 60.7595 41.6381C65.2276 41.5776 69.5561 42.1496 73.3782 43.4288C86.3874 47.7827 88.6033 58.68 78.3275 67.7687C71.7261 73.6075 54.779 76.3632 40.0542 76.4329Z" fill="#E5CABE"/>
<path d="M6.10535 43.8778C3.48721 49.7008 6.12883 56.149 14.0302 60.7105C25.8999 67.563 45.1445 67.563 57.0142 60.7105C63.5368 56.9449 66.4752 51.8937 65.8291 46.9698" stroke="black"/>
<path d="M65.3366 48.0134C67.2378 53.5631 64.4637 59.5408 57.0142 63.8415C45.1445 70.694 25.8999 70.694 14.0302 63.8415C7.96761 60.3415 5.00156 55.7308 5.13205 51.144" stroke="black"/>
<path d="M6.10535 49.5791C3.48721 55.6312 6.12883 62.3331 14.0302 67.0741C25.8999 74.1962 45.1445 74.1962 57.0142 67.0741C63.5368 63.1604 66.4752 57.9104 65.8291 52.7927" stroke="black"/>
<path d="M65.3366 53.8774C67.2378 59.6455 64.4637 65.8584 57.0142 70.3283C45.1445 77.4504 25.8999 77.4504 14.0302 70.3283C7.96761 66.6906 5.00156 61.8985 5.13205 57.1312" stroke="black"/>
<path d="M5.70779 41.7518C3.80654 47.3015 6.58067 53.2792 14.0302 57.5799C25.8999 64.4324 45.1445 64.4324 57.0142 57.5799C64.4637 53.2792 67.2378 47.3015 65.3366 41.7518" stroke="black"/>
<path d="M56.8241 54.0503C50.9776 57.4255 43.2834 59.1275 35.5621 59.1275C27.8408 59.1275 20.1466 57.4255 14.3002 54.0503C8.4509 50.6735 5.63965 46.3175 5.63965 42.0643C5.63965 37.8112 8.4509 33.4552 14.3002 30.0784C20.1466 26.7032 27.8408 25.0012 35.5621 25.0012C43.2834 25.0012 50.9776 26.7032 56.8241 30.0784C62.6734 33.4552 65.4846 37.8112 65.4846 42.0643C65.4846 46.3175 62.6734 50.6735 56.8241 54.0503Z" fill="#FFE1D3" stroke="black"/>
<path d="M62.9099 25.5766C63.234 26.4803 62.9381 27.5103 62.241 28.3128L45.8832 47.14C43.8789 49.4469 41.3996 51.2927 38.5235 52.18C31.679 54.2916 24.4923 54.9747 18.3395 53.7808C11.6904 52.4905 7.60133 49.2792 6.2114 45.2463C4.82147 41.2134 6.06367 36.1646 10.5059 31.0518C14.946 25.9414 21.6847 21.8137 29.005 19.2907C36.3254 16.7678 44.1763 15.8672 50.8221 17.1568C57.4083 18.4348 61.4829 21.5981 62.9099 25.5766Z" fill="#FFE1D3" stroke="black"/>
<path d="M43.0564 37.7294C42.0035 38.9378 41.3635 41.2804 40.8568 43.0559C36.856 45.4282 31.6626 46.5963 27.5275 45.7879C21.8194 44.672 20.2894 40.2125 24.1101 35.8274C27.9309 31.4423 35.6555 28.7921 41.3635 29.908C44.4845 30.5181 46.3564 32.1278 46.7876 34.1784C45.7196 34.6222 44.7881 35.7419 43.0564 37.7294Z" fill="white"/>
<path d="M63.522 25.9309C55.1583 28.0983 48.2247 31.602 44.2951 36.1245C40.3655 40.647 40.0881 45.4425 42.8149 49.7624" stroke="black"/>
<path d="M20.7148 50.164C9.58039 48.1687 7.0245 40.0533 15.0061 32.0377C22.9877 24.022 38.4844 19.1415 49.6188 21.1367" stroke="black"/>
</g>
<defs>
<clipPath id="clip0">
<rect width="87" height="87" fill="white"/>
</clipPath>
</defs>
</svg>

<svg width="87" height="87" fill="none" xmlns="http://www.w3.org/2000/svg"><g clip-path="url(#clip0)"><path fill-rule="evenodd" clip-rule="evenodd" d="M60.762 64.836c.212-.285.42-.575.623-.869 7.629-11.055 6.194-25.298-2.63-34.497a31.784 31.784 0 013.252-.2c6.813-.06 11.64 2.265 13.955 6.083.616 1.017.483 2.285-.103 3.32L61.241 64.52c-.159.106-.319.212-.48.317z" fill="#E5CABE"/><path fill-rule="evenodd" clip-rule="evenodd" d="M40.054 76.433c8.148-1.223 15.87-4.257 20.757-8.964 8.144-7.842 5.96-19.047-.051-25.83 4.468-.061 8.796.51 12.618 1.79 13.01 4.354 15.225 15.251 4.95 24.34-6.602 5.838-23.549 8.594-38.274 8.664z" fill="#E5CABE"/><path d="M6.105 43.878C3.487 49.7 6.13 56.149 14.03 60.71c11.87 6.852 31.114 6.852 42.984 0 6.523-3.766 9.461-8.817 8.815-13.741" stroke="#000"/><path d="M65.337 48.013c1.9 5.55-.873 11.528-8.323 15.829-11.87 6.852-31.114 6.852-42.984 0-6.062-3.5-9.028-8.111-8.898-12.698" stroke="#000"/><path d="M6.105 49.58c-2.618 6.051.024 12.753 7.925 17.494 11.87 7.122 31.114 7.122 42.984 0 6.523-3.914 9.461-9.164 8.815-14.281" stroke="#000"/><path d="M65.337 53.877c1.9 5.768-.873 11.981-8.323 16.451-11.87 7.122-31.114 7.122-42.984 0-6.062-3.637-9.028-8.43-8.898-13.197" stroke="#000"/><path d="M5.708 41.752c-1.901 5.55.873 11.527 8.322 15.828 11.87 6.852 31.114 6.852 42.984 0 7.45-4.3 10.224-10.279 8.323-15.828" stroke="#000"/><path d="M56.824 54.05c-5.846 3.376-13.54 5.078-21.262 5.078-7.721 0-15.415-1.703-21.262-5.078-5.85-3.377-8.66-7.732-8.66-11.986 0-4.253 2.81-8.609 8.66-11.986 5.847-3.375 13.54-5.077 21.262-5.077 7.721 0 15.416 1.702 21.262 5.077 5.85 3.377 8.66 7.733 8.66 11.986 0 4.254-2.81 8.61-8.66 11.986z" fill="#FFE1D3" stroke="#000"/><path d="M62.91 25.577c.324.903.028 1.933-.669 2.736L45.883 47.14c-2.004 2.307-4.483 4.153-7.36 5.04-6.844 2.112-14.03 2.795-20.184 1.6-6.649-1.29-10.738-4.5-12.128-8.534-1.39-4.033-.147-9.081 4.295-14.194 4.44-5.11 11.179-9.238 18.499-11.761 7.32-2.523 15.171-3.424 21.817-2.134 6.586 1.278 10.66 4.441 12.088 8.42z" fill="#FFE1D3" stroke="#000"/><path d="M43.056 37.73c-1.052 1.208-1.692 3.55-2.2 5.326-4 2.372-9.193 3.54-13.329 2.732-5.708-1.116-7.238-5.575-3.417-9.96 3.82-4.386 11.546-7.036 17.254-5.92 3.12.61 4.992 2.22 5.424 4.27-1.068.444-2 1.564-3.732 3.551z" fill="#fff"/><path d="M63.522 25.93c-8.364 2.168-15.297 5.672-19.227 10.194-3.93 4.523-4.207 9.319-1.48 13.638m-22.1.402c-11.135-1.995-13.69-10.11-5.709-18.126 7.982-8.016 23.478-12.896 34.613-10.901" stroke="#000"/></g><defs><clipPath id="clip0"><path fill="#fff" d="M0 0h87v87H0z"/></clipPath></defs></svg>
